shader_type spatial;
render_mode unshaded, cull_disabled;

void vertex() {
	POSITION = vec4(VERTEX * 2.0 - 1.0, 1.0);
}

void fragment() {
	// Called for every pixel the material is visible on.
}

//void light() {
	// Called for every pixel for every light affecting the material.
	// Uncomment to replace the default light processing function with this one.
//}
